editor/icons/icon_bezier_handles_mirror.svg

<svg height="16" viewBox="0 0 16 16" width="16" xmlns="http://www.w3.org/2000/svg"><path d="m1.7627119 13.627119s1.2881355-6.847458 6.5762712-8.1355935c5.0847459.9491522 5.9661009 8.1355925 5.9661009 8.1355925" fill="none" stroke="#84c2ff" stroke-miterlimit="4.9" stroke-width="1.7"/><ellipse cx="1.898304" cy="13.491526" fill="#e0e0e0" rx="1.267586" ry="1.199789"/><ellipse cx="14.237288" cy="13.491526" fill="#e0e0e0" rx="1.267586" ry="1.199789"/><path d="m8.2033896 4.6779662h-3.8335021" fill="none" stroke="#84c2ff" stroke-width=".805138"/><path d="m11.931789 4.6440679h-3.7283994" fill="none" stroke="#84c2ff" stroke-width=".716709"/><g fill="#e0e0e0"><ellipse cx="8.271187" cy="4.779661" rx="1.267586" ry="1.199789"/><path d="m3.1539157 3.4305762a1.2675855 1.1997888 0 0 0 -1.2675781 1.1992188 1.2675855 1.1997888 0 0 0 1.2675781 1.1992187 1.2675855 1.1997888 0 0 0 1.2675781-1.1992187 1.2675855 1.1997888 0 0 0 -1.2675781-1.1992188zm.00195.4238282a.84677333.80148375 0 0 1 .8476593.8007812.84677333.80148375 0 0 1 -.8476562.8007812.84677333.80148375 0 0 1 -.8476562-.8007812.84677333.80148375 0 0 1 .8476562-.8007812z"/><path d="m13.093969 3.3750567a1.2675855 1.1997888 0 0 0 -1.267578 1.1992188 1.2675855 1.1997888 0 0 0 1.267578 1.1992187 1.2675855 1.1997888 0 0 0 1.267578-1.1992187 1.2675855 1.1997888 0 0 0 -1.267578-1.1992188zm.002.4238282a.84677333.80148375 0 0 1 .847659.8007812.84677333.80148375 0 0 1 -.847656.8007812.84677333.80148375 0 0 1 -.847656-.8007812.84677333.80148375 0 0 1 .847656-.8007812z"/></g></svg>

<?xml version="1.0" encoding="UTF-8" standalone="no"?>
<svg
   xmlns:dc="http://purl.org/dc/elements/1.1/"
   xmlns:cc="http://creativecommons.org/ns#"
   xmlns:rdf="http://www.w3.org/1999/02/22-rdf-syntax-ns#"
   xmlns:svg="http://www.w3.org/2000/svg"
   xmlns="http://www.w3.org/2000/svg"
   xmlns:sodipodi="http://sodipodi.sourceforge.net/DTD/sodipodi-0.dtd"
   xmlns:inkscape="http://www.inkscape.org/namespaces/inkscape"
   width="16"
   height="16"
   version="1.1"
   viewBox="0 0 16 16"
   id="svg6"
   sodipodi:docname="icon_bezier_handles_mirror.svg"
   inkscape:version="0.92.3 (2405546, 2018-03-11)">
  <metadata
     id="metadata12">
    <rdf:RDF>
      <cc:Work
         rdf:about="">
        <dc:format>image/svg+xml</dc:format>
        <dc:type
           rdf:resource="http://purl.org/dc/dcmitype/StillImage" />
        <dc:title></dc:title>
      </cc:Work>
    </rdf:RDF>
  </metadata>
  <defs
     id="defs10" />
  <sodipodi:namedview
     pagecolor="#ffffff"
     bordercolor="#666666"
     borderopacity="1"
     objecttolerance="10"
     gridtolerance="10"
     guidetolerance="10"
     inkscape:pageopacity="0"
     inkscape:pageshadow="2"
     inkscape:window-width="1417"
     inkscape:window-height="685"
     id="namedview8"
     showgrid="false"
     inkscape:zoom="20.85965"
     inkscape:cx="4.2910315"
     inkscape:cy="11.857644"
     inkscape:window-x="67"
     inkscape:window-y="27"
     inkscape:window-maximized="0"
     inkscape:current-layer="svg6" />
  <path
     style="fill:none;stroke:#84c2ff;stroke-width:1.70000005;stroke-linecap:butt;stroke-linejoin:miter;stroke-miterlimit:4.9000001;stroke-dasharray:none;stroke-opacity:1"
     d="m 1.7627119,13.627119 c 0,0 1.2881355,-6.847458 6.5762712,-8.1355935 5.0847459,0.9491522 5.9661009,8.1355925 5.9661009,8.1355925"
     id="path4526"
     inkscape:connector-curvature="0"
     sodipodi:nodetypes="ccc" />
  <ellipse
     style="fill:#e0e0e0;fill-opacity:1;stroke:none;stroke-width:5.64574671;stroke-miterlimit:4.9000001;stroke-dasharray:none;stroke-opacity:1"
     id="path5846"
     cx="1.8983043"
     cy="13.491526"
     rx="1.2675855"
     ry="1.1997888" />
  <ellipse
     style="fill:#e0e0e0;fill-opacity:1;stroke:none;stroke-width:5.64574671;stroke-miterlimit:4.9000001;stroke-dasharray:none;stroke-opacity:1"
     id="path5846-3"
     cx="14.237288"
     cy="13.491526"
     rx="1.2675855"
     ry="1.1997888" />
  <path
     style="fill:none;stroke:#84c2ff;stroke-width:0.80513805;stroke-linecap:butt;stroke-linejoin:miter;stroke-miterlimit:4;stroke-dasharray:none;stroke-opacity:1"
     d="M 8.2033896,4.6779662 H 4.3698875"
     id="path5878"
     inkscape:connector-curvature="0" />
  <path
     style="fill:none;stroke:#84c2ff;stroke-width:0.71670938;stroke-linecap:butt;stroke-linejoin:miter;stroke-miterlimit:4;stroke-dasharray:none;stroke-opacity:1"
     d="M 11.931789,4.6440679 H 8.2033896"
     id="path5878-7"
     inkscape:connector-curvature="0" />
  <ellipse
     style="fill:#e0e0e0;fill-opacity:1;stroke:none;stroke-width:5.64574671;stroke-miterlimit:4.9000001;stroke-dasharray:none;stroke-opacity:1"
     id="path5846-3-6"
     cx="8.2711868"
     cy="4.7796612"
     rx="1.2675855"
     ry="1.1997888" />
  <path
     style="fill:#e0e0e0;fill-opacity:1;stroke:none;stroke-width:5.64574671;stroke-miterlimit:4.9000001;stroke-dasharray:none;stroke-opacity:1"
     d="M 3.1539157,3.4305762 A 1.2675855,1.1997888 0 0 0 1.8863376,4.629795 1.2675855,1.1997888 0 0 0 3.1539157,5.8290137 1.2675855,1.1997888 0 0 0 4.4214938,4.629795 1.2675855,1.1997888 0 0 0 3.1539157,3.4305762 Z m 0.00195,0.4238282 A 0.84677333,0.80148375 0 0 1 4.003525,4.6551856 0.84677333,0.80148375 0 0 1 3.1558688,5.4559668 0.84677333,0.80148375 0 0 1 2.3082126,4.6551856 0.84677333,0.80148375 0 0 1 3.1558688,3.8544044 Z"
     id="path5846-5"
     inkscape:connector-curvature="0" />
  <path
     inkscape:connector-curvature="0"
     style="fill:#e0e0e0;fill-opacity:1;stroke:none;stroke-width:5.64574671;stroke-miterlimit:4.9000001;stroke-dasharray:none;stroke-opacity:1"
     d="m 13.093969,3.3750567 a 1.2675855,1.1997888 0 0 0 -1.267578,1.1992188 1.2675855,1.1997888 0 0 0 1.267578,1.1992187 1.2675855,1.1997888 0 0 0 1.267578,-1.1992187 1.2675855,1.1997888 0 0 0 -1.267578,-1.1992188 z m 0.002,0.4238282 a 0.84677333,0.80148375 0 0 1 0.847659,0.8007812 0.84677333,0.80148375 0 0 1 -0.847656,0.8007812 0.84677333,0.80148375 0 0 1 -0.847656,-0.8007812 0.84677333,0.80148375 0 0 1 0.847656,-0.8007812 z"
     id="path5846-5-6" />
</svg>
